X: 33869
T: Red Bee, The
R: reel
M: 4/4
K: Bminor
|:fB3 BABc|dBcA BAFE|FB3 Bcde|f2ed (3Bcd eg|
fB3 cBAF|E3F ABce|(3fga fe cBAF|1 EFAc B2ce:|2 EFAc B3c||
|:B2cB fB3|afge fecA|B2cB fBcB|AFEF ABcA|
B2cB fB3|afge fece|(3fga fe cBAF|EFAc B3c:|
|:d2 d2 AdBd|afef ed (3Bcd|AdBd edfe|dBAF E2FA|
d2 d2 AdBd|afef edBA|fBBA F3A|1 BdcA B3c:|2 BdcA B2ce||

